!!!COM: Bach, Johann Sebastian
!!!OTL: Komm, heiliger Geist, Herre Gott
!!!ONM: No. 69
!!!OCL: Erk
!!!YOE: Riemenschneider, Albert
!!!OPR: 371 Harmonized Chorales and 69 Chorale Melodies with Figured Bass
!!!OPT: Bach Chorale Harmonizations
**kern	**kern	**kern	**kern
! bass	! tenor	! alto	! soprano
*M4/4	*M4/4	*M4/4	*M4/4
*G:	*G:	*G:	*G:
4G	4B	4g	4dd
=1	=1	=1	=1
4C	8c	4g	4ee
.	8B	.	.
4D	4A	4f#	8dd
.	.	.	8cc
4E	4G	4g	8b
.	.	.	8cc
8BB	4G	8d	4dd
8C	.	8e	.
=2	=2	=2	=2
2D;	2d;	2f#;	2a;
8G	4d	4g	4b
8F#	.	.	.
4E	4G	4g	4cc#
=3	=3	=3	=3
2D;	2A;	2f#;	2dd;
4r	4r	4r	4r
4BB	4G	4g	4dd
=4	=4	=4	=4
4C	8c	4g	4ee
.	8B	.	.
4D	8A	8f#	4dd
.	8G	8e	.
8C	8F#	4d	8a
8BB	8G	.	8b
4AA	4C	8e	4cc
.	.	8f#	.
=5	=5	=5	=5
8BB	4D	4g	4b
8C	.	.	.
4D	8d	4f#	4a
.	8c	.	.
4GG;	4B;	4d;	4g;
4G	4B	4d	4g
=6	=6	=6	=6
4F#	4A	4d	8a
.	.	.	8b
8E	8G	4e	4cc
8F#	8A	.	.
4G	4B	8d	8b
.	.	8e	8cc
8F#	8A	[4f#	[4dd
8E	8G	.	.
=7	=7	=7	=7
8F#	4A	8f#]	4dd]
8E	.	8g	.
8D	4d	8f#	4a
8C#	.	8e	.
8BB	4d	8d	8g
8GG	.	8B	8f#
4AA	8A	4c#	4e
.	8G	.	.
=8	=8	=8	=8
2D;	2F#;	2A;	2d;
4r	4r	4r	4r
8D	4F#	4A	4d
8Cn	.	.	.
=9	=9	=9	=9
8BB	4G	8d	4g
8C	.	8e	.
8BB	4c	4f#	4a
8AA	.	.	.
4GG	8d	4.g	8b
.	8c	.	8cc
8G	8B	.	[4dd
8Fn	8A	8a	.
=10	=10	=10	=10
4E	8G#	[4b	4dd]
.	8F#	.	.
4AA	4E	8b]	4cc
.	.	8a	.
4BB	4D#	8g	4b
.	.	8f#	.
4C	4E	4e	4a
=11	=11	=11	=11
2BB;	2F#;	2d#;	2b;
4r	4r	4r	4r
4E	8G	4g	8b
.	8A	.	8cc
=12	=12	=12	=12
4B	4B	8f#	4dd
.	.	8g#	.
8A	4c#	4a	4ee
8G	.	.	.
8F#	4.d	8a	4dd
8E	.	8gn	.
4D	.	8f#	4a
.	8cn	8e	.
=13	=13	=13	=13
8G	8B	4d	4b
8F#	8A	.	.
4E	4G	4e	4cc#
4D;	4A;	4f#;	4dd;
4G	4B	8g	4dd
.	.	8f#	.
=14	=14	=14	=14
4C	4c	8e	4ee
.	.	8f#	.
8BB	4d	4g	4dd
8C	.	.	.
4D	4d	4f#	8a
.	.	.	8b
8E	8G	4e	4cc
8F#	8A	.	.
=15	=15	=15	=15
8G	8B	8d	4b
8C	8G	8e	.
4D	8d	4f#	4a
.	8c	.	.
4GG;	4B;	4d;	4g;
8C	4c	4e	4g
8BB	.	.	.
=16	=16	=16	=16
4AA	8c	4e	8a
.	8B	.	8b
4A	4A	8e	4cc
.	.	8f#	.
4E	8B	[2g	8b
.	8A	.	8cc
8BB	8G	.	[4dd
8C	8A	.	.
=17	=17	=17	=17
8D	8B	4g]	4dd]
8E	8c#	.	.
8F#	2d	4f#	4a
8D	.	.	.
8B	.	8g	8g
8G	.	[8d	8f#
4A	8A	8d]	4e
.	8G	8c#	.
=18	=18	=18	=18
2D;	2F#;	2A;	2d;
4r	4r	4r	4r
4BB	4F#	8d	4d
.	.	8cn	.
=19	=19	=19	=19
4E	8G	8B	4g
.	8c	8e	.
4F#	8B	8d	4a
.	8A	8c	.
8G	4.G	4.B	8b
8A	.	.	8cc
8B	.	.	[4dd
8A	8A	16c	.
.	.	16d	.
=20	=20	=20	=20
8G#	[4B	4e	4dd]
8E	.	.	.
4A	8B]	4e	4cc
.	8A	.	.
8E	8Gn	4e	4b
8D	8F#	.	.
8C	4E	8e	4a
8BB	.	8d	.
=21	=21	=21	=21
8C	2A	2c	4e
8AA	.	.	.
4D	.	.	4f#
4GG;	4G;	4B;	4g;
4D	4F#	4d	4a
=22	=22	=22	=22
8GG	2.G	[2d	4b
8AA	.	.	.
4BB	.	.	4g
2C	.	8d]	2e
.	.	8B	.
.	8G	4c	.
.	8F#	.	.
=23	=23	=23	=23
4G;	4G;	4B;	4d;
4F#	[4A	2d	8a
.	.	.	16b
.	.	.	16cc
8G	4A]	.	2b
8F#	.	.	.
8E	[4G	[4e	.
8D	.	.	.
=24	=24	=24	=24
8C	4G]	4e]	2a
8AA	.	.	.
4D	16F#	8d	.
.	16E	.	.
.	8F#	8c	.
4GG;	4D;	4B;	4g;
==	==	==	==
*-	*-	*-	*-
!!!CDT: 1685/3//-1750/7/28
!!!OCY: Deutschland
!!!AGN: chorale
!!!AST: Baroque
!!!AIN: vox
!!!YOY: 1941
!!!PPP: New York; London
!!!PPR: G. Schirmer
!!!ENC: David Huron
!!!EED: David Huron
!!!YEN: United States of America
!!!YER: 1992
!!!YEC: Copyright 1992 David Huron
!!!YEM: Rights to all derivative electronic formats reserved.
!!!YER: March 20, 1996
!!!AMT: simple quadruple
!!!EEV: 1.1
